icons/svg/landuse/greenhouse_horticulture.svg

<?xml version="1.0" encoding="UTF-8" standalone="no"?>
<!-- Created with Inkscape (http://www.inkscape.org/) -->

<svg
   xmlns:dc="http://purl.org/dc/elements/1.1/"
   xmlns:cc="http://creativecommons.org/ns#"
   xmlns:rdf="http://www.w3.org/1999/02/22-rdf-syntax-ns#"
   xmlns:svg="http://www.w3.org/2000/svg"
   xmlns="http://www.w3.org/2000/svg"
   xmlns:sodipodi="http://sodipodi.sourceforge.net/DTD/sodipodi-0.dtd"
   xmlns:inkscape="http://www.inkscape.org/namespaces/inkscape"
   version="1.0"
   width="580"
   height="580"
   id="svg2"
   sodipodi:version="0.32"
   inkscape:version="0.91 r"
   sodipodi:docname="greenhouse_horticulture.svg"
   inkscape:output_extension="org.inkscape.output.svg.inkscape">
  <metadata
     id="metadata10">
    <rdf:RDF>
      <cc:Work
         rdf:about="">
        <dc:format>image/svg+xml</dc:format>
        <dc:type
           rdf:resource="http://purl.org/dc/dcmitype/StillImage" />
        <cc:license
           rdf:resource="http://web.resource.org/cc/PublicDomain" />
        <dc:language>en</dc:language>
        <dc:title></dc:title>
      </cc:Work>
    </rdf:RDF>
  </metadata>
  <sodipodi:namedview
     inkscape:window-height="1006"
     inkscape:window-width="1920"
     inkscape:pageshadow="2"
     inkscape:pageopacity="0.0"
     guidetolerance="10.0"
     gridtolerance="10.0"
     objecttolerance="10.0"
     borderopacity="1.0"
     bordercolor="#666666"
     pagecolor="#ffffff"
     id="base"
     showgrid="false"
     inkscape:zoom="0.70710678"
     inkscape:cx="193.96836"
     inkscape:cy="410.88686"
     inkscape:window-x="1680"
     inkscape:window-y="0"
     inkscape:current-layer="svg2"
     showguides="true"
     inkscape:guide-bbox="true"
     inkscape:window-maximized="1" />
  <defs
     id="defs4">
    <inkscape:perspective
       sodipodi:type="inkscape:persp3d"
       inkscape:vp_x="0 : 290 : 1"
       inkscape:vp_y="0 : 1000 : 0"
       inkscape:vp_z="580 : 290 : 1"
       inkscape:persp3d-origin="290 : 193.33333 : 1"
       id="perspective12" />
    <style
       type="text/css"
       id="style6">
   
    .fil0 {fill:#EF7900}
   
  </style>
    <inkscape:perspective
       id="perspective6807"
       inkscape:persp3d-origin="29.116032 : 19.410688 : 1"
       inkscape:vp_z="58.232063 : 29.116032 : 1"
       inkscape:vp_y="0 : 1000 : 0"
       inkscape:vp_x="0 : 29.116032 : 1"
       sodipodi:type="inkscape:persp3d" />
    <inkscape:perspective
       id="perspective6954"
       inkscape:persp3d-origin="290 : 193.33333 : 1"
       inkscape:vp_z="580 : 290 : 1"
       inkscape:vp_y="0 : 1000 : 0"
       inkscape:vp_x="0 : 290 : 1"
       sodipodi:type="inkscape:persp3d" />
    <inkscape:perspective
       id="perspective2541"
       inkscape:persp3d-origin="240 : 160 : 1"
       inkscape:vp_z="480 : 240 : 1"
       inkscape:vp_y="0 : 1000 : 0"
       inkscape:vp_x="0 : 240 : 1"
       sodipodi:type="inkscape:persp3d" />
    <inkscape:perspective
       id="perspective2750"
       inkscape:persp3d-origin="215 : 143.33333 : 1"
       inkscape:vp_z="430 : 215 : 1"
       inkscape:vp_y="0 : 1000 : 0"
       inkscape:vp_x="0 : 215 : 1"
       sodipodi:type="inkscape:persp3d" />
    <inkscape:perspective
       id="perspective2830"
       inkscape:persp3d-origin="0.5 : 0.33333333 : 1"
       inkscape:vp_z="1 : 0.5 : 1"
       inkscape:vp_y="0 : 1000 : 0"
       inkscape:vp_x="0 : 0.5 : 1"
       sodipodi:type="inkscape:persp3d" />
    <inkscape:perspective
       id="perspective3648"
       inkscape:persp3d-origin="0.5 : 0.33333333 : 1"
       inkscape:vp_z="1 : 0.5 : 1"
       inkscape:vp_y="0 : 1000 : 0"
       inkscape:vp_x="0 : 0.5 : 1"
       sodipodi:type="inkscape:persp3d" />
    <inkscape:perspective
       id="perspective3675"
       inkscape:persp3d-origin="0.5 : 0.33333333 : 1"
       inkscape:vp_z="1 : 0.5 : 1"
       inkscape:vp_y="0 : 1000 : 0"
       inkscape:vp_x="0 : 0.5 : 1"
       sodipodi:type="inkscape:persp3d" />
    <inkscape:perspective
       id="perspective3736"
       inkscape:persp3d-origin="0.5 : 0.33333333 : 1"
       inkscape:vp_z="1 : 0.5 : 1"
       inkscape:vp_y="0 : 1000 : 0"
       inkscape:vp_x="0 : 0.5 : 1"
       sodipodi:type="inkscape:persp3d" />
  </defs>
  <g
     id="g1327">
    <path
       d="M 66.275,1.768 C 24.94,1.768 1.704,23.139 1.704,66.804 L 1.704,516.927 C 1.704,557.771 22.598,579.156 63.896,579.156 L 515.92,579.156 C 557.227,579.156 578.149,558.84 578.149,516.927 L 578.149,66.804 C 578.149,24.203 557.227,1.768 514.627,1.768 C 514.624,1.768 66.133,1.625 66.275,1.768 z"
       style="fill:#111111;stroke:#eeeeee;stroke-width:3.40799999"
       id="path1329" />
  </g>
  <path
     inkscape:connector-curvature="0"
     d="M 538.15804,112.11702 553.3554,106 538.15804,99.88297 C 524.96002,94.5752 518.69422,79.455201 524.27571,66.370232 l 6.4205,-15.066446 -15.06644,6.4205 C 502.53885,63.29982 487.4248,57.039985 482.11108,43.841968 L 476,28.6446 469.88892,43.841968 c -5.31371,13.198017 -20.42776,19.457852 -33.51868,13.882318 l -15.06645,-6.4205 6.4205,15.066446 C 433.30577,79.455201 427.03998,94.5752 413.84197,99.88298 L 398.64461,106 l 15.19736,6.11702 c 13.19801,5.30777 19.4638,20.42778 13.88232,33.51274 l -6.4205,15.06645 15.06645,-6.4205 c 13.09092,-5.57553 28.20497,0.68431 33.51868,13.88232 L 476,183.35539 l 6.11108,-15.19736 c 5.31372,-13.19801 20.42777,-19.45786 33.51869,-13.88232 l 15.06644,6.4205 -6.4205,-15.06645 c -5.57553,-13.09092 0.68431,-28.20497 13.88233,-33.51274 z M 476,141.70248 c -19.71372,0 -35.70248,-15.9828 -35.70248,-35.70248 0,-19.71968 15.98876,-35.702492 35.70248,-35.702492 19.71372,0 35.70249,15.982812 35.70249,35.702492 0,19.71968 -15.98876,35.70248 -35.70249,35.70248 z"
     id="path4-3"
     style="fill:#ffffff;fill-opacity:1;stroke:none" />
  <path
     style="fill:none;fill-rule:evenodd;stroke:#ffffff;stroke-width:30;stroke-linecap:butt;stroke-linejoin:round;stroke-miterlimit:4;stroke-dasharray:none;stroke-opacity:1"
     d="M 78.516189,509.51474 501,509.51474 501,265.9088 287.55965,144.38592 78.516189,265.9088 Z"
     id="path4162"
     inkscape:connector-curvature="0"
     sodipodi:nodetypes="cccccc" />
  <path
     style="fill:none;fill-rule:evenodd;stroke:#ffffff;stroke-width:23;stroke-linecap:round;stroke-linejoin:round;stroke-miterlimit:4;stroke-dasharray:none;stroke-opacity:1"
     d="m 207.18231,455.32311 0,-143.02365"
     id="path4164"
     inkscape:connector-curvature="0"
     sodipodi:nodetypes="cc" />
  <path
     style="fill:#ffffff;fill-opacity:1;fill-rule:evenodd;stroke:none;stroke-width:1px;stroke-linecap:butt;stroke-linejoin:miter;stroke-opacity:1"
     d="m 271.99082,334.29188 c -56.34253,-0.25635 -60.59164,32.52289 -65.05256,65.05256 56.34251,0.25634 60.59162,-32.5229 65.05256,-65.05256 z"
     id="path4166"
     inkscape:connector-curvature="0"
     sodipodi:nodetypes="ccc" />
  <path
     style="fill:#ffffff;fill-opacity:1;fill-rule:evenodd;stroke:none;stroke-width:1px;stroke-linecap:butt;stroke-linejoin:miter;stroke-opacity:1"
     d="m 260.2147,250.79653 c -56.34253,-0.25635 -60.59164,32.52289 -65.05256,65.05256 56.34251,0.25634 60.59162,-32.5229 65.05256,-65.05256 z"
     id="path4166-6"
     inkscape:connector-curvature="0"
     sodipodi:nodetypes="ccc" />
  <path
     style="fill:#ffffff;fill-opacity:1;fill-rule:evenodd;stroke:none;stroke-width:1px;stroke-linecap:butt;stroke-linejoin:miter;stroke-opacity:1"
     d="m 142.83622,289.58689 c 56.34253,-0.25635 60.59164,32.52289 65.05256,65.05256 -56.34251,0.25634 -60.59162,-32.5229 -65.05256,-65.05256 z"
     id="path4166-6-7"
     inkscape:connector-curvature="0"
     sodipodi:nodetypes="ccc" />
  <path
     style="fill:#ffffff;fill-opacity:1;fill-rule:evenodd;stroke:none;stroke-width:1px;stroke-linecap:butt;stroke-linejoin:miter;stroke-opacity:1"
     d="m 144.60399,375.4354 c 56.34253,-0.25635 60.59164,32.52289 65.05256,65.05256 -56.34251,0.25634 -60.59162,-32.5229 -65.05256,-65.05256 z"
     id="path4166-6-7-5"
     inkscape:connector-curvature="0"
     sodipodi:nodetypes="ccc" />
  <path
     style="fill:none;fill-rule:evenodd;stroke:#ffffff;stroke-width:23;stroke-linecap:round;stroke-linejoin:round;stroke-miterlimit:4;stroke-dasharray:none;stroke-opacity:1"
     d="m 358.76879,457.18954 0,-143.02365"
     id="path4164-3"
     inkscape:connector-curvature="0"
     sodipodi:nodetypes="cc" />
  <path
     style="fill:#ffffff;fill-opacity:1;fill-rule:evenodd;stroke:none;stroke-width:1px;stroke-linecap:butt;stroke-linejoin:miter;stroke-opacity:1"
     d="m 423.5773,336.15831 c -56.34253,-0.25635 -60.59164,32.52289 -65.05256,65.05256 56.34251,0.25634 60.59162,-32.5229 65.05256,-65.05256 z"
     id="path4166-5"
     inkscape:connector-curvature="0"
     sodipodi:nodetypes="ccc" />
  <path
     style="fill:#ffffff;fill-opacity:1;fill-rule:evenodd;stroke:none;stroke-width:1px;stroke-linecap:butt;stroke-linejoin:miter;stroke-opacity:1"
     d="m 411.80118,252.66296 c -56.34253,-0.25635 -60.59164,32.52289 -65.05256,65.05256 56.34251,0.25634 60.59162,-32.5229 65.05256,-65.05256 z"
     id="path4166-6-6"
     inkscape:connector-curvature="0"
     sodipodi:nodetypes="ccc" />
  <path
     style="fill:#ffffff;fill-opacity:1;fill-rule:evenodd;stroke:none;stroke-width:1px;stroke-linecap:butt;stroke-linejoin:miter;stroke-opacity:1"
     d="m 294.4227,291.45332 c 56.34253,-0.25635 60.59164,32.52289 65.05256,65.05256 -56.34251,0.25634 -60.59162,-32.5229 -65.05256,-65.05256 z"
     id="path4166-6-7-2"
     inkscape:connector-curvature="0"
     sodipodi:nodetypes="ccc" />
  <path
     style="fill:#ffffff;fill-opacity:1;fill-rule:evenodd;stroke:none;stroke-width:1px;stroke-linecap:butt;stroke-linejoin:miter;stroke-opacity:1"
     d="m 296.19047,377.30183 c 56.34253,-0.25635 60.59164,32.52289 65.05256,65.05256 -56.34251,0.25634 -60.59162,-32.5229 -65.05256,-65.05256 z"
     id="path4166-6-7-5-9"
     inkscape:connector-curvature="0"
     sodipodi:nodetypes="ccc" />
</svg>

<svg width="580" height="580" viewBox="0 0 580 580" fill="none" xmlns="http://www.w3.org/2000/svg">
<g clip-path="url(#clip0)">
<path d="M66.2751 1.76802C24.9401 1.76802 1.7041 23.139 1.7041 66.804V516.927C1.7041 557.771 22.5981 579.156 63.8961 579.156H515.92C557.227 579.156 578.149 558.84 578.149 516.927V66.804C578.149 24.203 557.227 1.76802 514.627 1.76802C514.624 1.76802 66.1331 1.62502 66.2751 1.76802Z" fill="#111111" stroke="#EEEEEE" stroke-width="3.408"/>
<path d="M538.158 112.117L553.355 106L538.158 99.883C524.96 94.5753 518.694 79.4553 524.276 66.3703L530.696 51.3038L515.63 57.7243C502.539 63.2999 487.425 57.04 482.111 43.842L476 28.6447L469.889 43.842C464.575 57.04 449.461 63.2999 436.37 57.7243L421.304 51.3038L427.724 66.3703C433.306 79.4553 427.04 94.5753 413.842 99.883L398.645 106L413.842 112.117C427.04 117.425 433.306 132.545 427.724 145.63L421.304 160.696L436.37 154.276C449.461 148.7 464.575 154.96 469.889 168.158L476 183.355L482.111 168.158C487.425 154.96 502.539 148.7 515.63 154.276L530.696 160.696L524.276 145.63C518.7 132.539 524.96 117.425 538.158 112.117V112.117ZM476 141.703C456.286 141.703 440.297 125.72 440.297 106C440.297 86.2804 456.286 70.2976 476 70.2976C495.714 70.2976 511.702 86.2804 511.702 106C511.702 125.72 495.714 141.703 476 141.703Z" fill="white"/>
<path fill-rule="evenodd" clip-rule="evenodd" d="M78.5161 509.515H501V265.909L287.56 144.386L78.5161 265.909V509.515Z" stroke="white" stroke-width="30" stroke-linejoin="round"/>
<path d="M207.182 455.323V312.299" stroke="white" stroke-width="23" stroke-linecap="round" stroke-linejoin="round"/>
<path fill-rule="evenodd" clip-rule="evenodd" d="M271.991 334.292C215.648 334.036 211.399 366.815 206.938 399.344C263.281 399.601 267.53 366.822 271.991 334.292Z" fill="white"/>
<path fill-rule="evenodd" clip-rule="evenodd" d="M260.215 250.797C203.872 250.54 199.623 283.319 195.162 315.849C251.505 316.105 255.754 283.326 260.215 250.797Z" fill="white"/>
<path fill-rule="evenodd" clip-rule="evenodd" d="M142.836 289.587C199.179 289.331 203.428 322.11 207.889 354.639C151.546 354.896 147.297 322.117 142.836 289.587V289.587Z" fill="white"/>
<path fill-rule="evenodd" clip-rule="evenodd" d="M144.604 375.435C200.947 375.179 205.196 407.958 209.657 440.488C153.314 440.744 149.065 407.965 144.604 375.435V375.435Z" fill="white"/>
<path d="M358.769 457.19V314.166" stroke="white" stroke-width="23" stroke-linecap="round" stroke-linejoin="round"/>
<path fill-rule="evenodd" clip-rule="evenodd" d="M423.577 336.158C367.235 335.902 362.986 368.681 358.525 401.211C414.867 401.467 419.116 368.688 423.577 336.158V336.158Z" fill="white"/>
<path fill-rule="evenodd" clip-rule="evenodd" d="M411.801 252.663C355.459 252.407 351.209 285.186 346.749 317.716C403.091 317.972 407.34 285.193 411.801 252.663V252.663Z" fill="white"/>
<path fill-rule="evenodd" clip-rule="evenodd" d="M294.423 291.453C350.765 291.197 355.014 323.976 359.475 356.506C303.133 356.762 298.884 323.983 294.423 291.453V291.453Z" fill="white"/>
<path fill-rule="evenodd" clip-rule="evenodd" d="M296.19 377.302C352.533 377.045 356.782 409.825 361.243 442.354C304.901 442.611 300.651 409.831 296.19 377.302Z" fill="white"/>
</g>
<defs>
<clipPath id="clip0">
<path d="M0 0H580V580H0V0Z" fill="white"/>
</clipPath>
</defs>
</svg>
